X: 38855
T: Sunday Morning
R: waltz
M: 3/4
K: Gmajor
L:1/16
GAB2G2|A3G E3F GABd|e3f g2d2c2B2|A2GA B2G2 AGFE|
D4D2GA B2G2|A3G E3F GABd|e3f g2d2 c2B2|A4 GABG AGAB|
1 G2G2G2:|2 G2G2G4z2|:dc|B2d2 d2ef g2fg|e3f g2d2c2B2|
A4 BABG F2E2|D6 GA B2G2|A3G EDEF GABd|
e3f g2(3fga gfed|B3A BABG FEFD|G2G2 G4z2:|

